build/img/icon-instagram.svg

<svg width="24" height="24" viewBox="0 0 24 24" fill="none" xmlns="http://www.w3.org/2000/svg">
<path d="M11.9999 8.3999C10.0148 8.3999 8.3999 10.0148 8.3999 11.9999C8.3999 13.985 10.0148 15.5999 11.9999 15.5999C13.985 15.5999 15.5999 13.985 15.5999 11.9999C15.5999 10.0148 13.985 8.3999 11.9999 8.3999Z" fill="white"/>
<path fill-rule="evenodd" clip-rule="evenodd" d="M2.3999 17.6106V6.3892C2.3999 4.18596 4.18596 2.3999 6.3892 2.3999H17.6106C19.8138 2.3999 21.5999 4.18596 21.5999 6.3892V17.6106C21.5999 19.8138 19.8138 21.5999 17.6106 21.5999H6.3892C4.18596 21.5999 2.3999 19.8138 2.3999 17.6106ZM6.55982 9.96611C4.92588 14.7018 9.29803 19.0739 14.0337 17.44C15.6299 16.8894 16.8894 15.6299 17.44 14.0338C19.0739 9.29803 14.7018 4.92588 9.966 6.55982C8.3699 7.11037 7.11037 8.37002 6.55982 9.96611ZM17.9999 6.59993C18.6626 6.59993 19.1999 6.06268 19.1999 5.39993C19.1999 4.73719 18.6626 4.19993 17.9999 4.19993C17.3372 4.19993 16.7999 4.73719 16.7999 5.39993C16.7999 6.06268 17.3372 6.59993 17.9999 6.59993Z" fill="white"/>
</svg>

<svg width="24" height="24" fill="none" xmlns="http://www.w3.org/2000/svg"><path d="M12 8.4A3.604 3.604 0 008.4 12c0 1.985 1.615 3.6 3.6 3.6s3.6-1.615 3.6-3.6-1.615-3.6-3.6-3.6z"/><path clip-rule="evenodd" d="M2.4 17.61V6.39A3.99 3.99 0 016.39 2.4h11.22a3.99 3.99 0 013.99 3.99v11.22a3.99 3.99 0 01-3.99 3.99H6.39a3.99 3.99 0 01-3.99-3.99zm4.16-7.644a5.823 5.823 0 007.474 7.474 5.508 5.508 0 003.406-3.406A5.823 5.823 0 009.966 6.56 5.508 5.508 0 006.56 9.966zM18 6.6a1.2 1.2 0 100-2.4 1.2 1.2 0 000 2.4z"/></svg>
